z_dist/img/icons/web3/segwit.svg

<svg width="64" height="64" viewBox="0 0 64 64" fill="none" xmlns="http://www.w3.org/2000/svg">
<path d="M32.102 40.8L22.902 50.1019L4.80005 32L22.902 13.8981L41.0039 32L36.4784 36.5255" stroke="#111111" stroke-width="2"/>
<path d="M31.9531 22.6512L41.004 13.6002L59.106 31.7021L41.004 49.8041L31.9531 40.7531L22.9021 31.7021L27.4276 27.1767" stroke="#111111" stroke-width="2"/>
</svg>

<svg width="64" height="64" fill="none" xmlns="http://www.w3.org/2000/svg"><path d="M32.102 40.8l-9.2 9.302L4.8 32l18.102-18.102L41.004 32l-4.526 4.526" stroke="#111" stroke-width="2"/><path d="M31.953 22.651l9.051-9.05 18.102 18.101-18.102 18.102-9.05-9.05-9.052-9.052 4.526-4.525" stroke="#111" stroke-width="2"/></svg>
